X: 136001
T: The TENPENNY BIT
Q: "Irish Jig."
R: Jig.
%R: jig
B: James Kerr "Merry Melodies" v.1 p.36 s.0 #1
Z: 2016 John Chambers <jc:trillian.mit.edu>
M: 6/8
L: 1/8
K: Am
ue |\
eAA eAA | BAB GBd | eAA eAA | de^f gfg |\
eAA eAA | BAB GBd | edB gBB | BAA A2 :|
|: uB |\
vA2va aga | bge dBG | vA2va aga | bge ug2 ud |\
ve2va aga | bge dBd | edB gBB | BAA A2 :|

%%sep 1 1 500
%%sep 1 1 500

